inst/assets/svg/wi-night-alt-storm-showers.svg

<?xml version="1.0" encoding="UTF-8"?>
<svg xmlns="http://www.w3.org/2000/svg" xmlns:xlink="http://www.w3.org/1999/xlink" width="30pt" height="30pt" viewBox="0 0 30 30" version="1.1">
<g id="surface686">
<path style=" stroke:none;fill-rule:nonzero;fill:rgb(0%,0%,0%);fill-opacity:1;" d="M 4.089844 16.890625 C 4.089844 18 4.421875 18.988281 5.078125 19.859375 C 5.738281 20.730469 6.601563 21.328125 7.660156 21.648438 L 7.011719 23.351563 C 6.96875 23.488281 7.011719 23.558594 7.148438 23.558594 L 9.269531 23.558594 L 7.980469 27.738281 L 8.261719 27.738281 L 12.488281 22.121094 C 12.53125 22.078125 12.53125 22.03125 12.511719 21.980469 C 12.480469 21.929688 12.441406 21.910156 12.371094 21.910156 L 10.191406 21.910156 L 12.660156 17.269531 C 12.730469 17.128906 12.691406 17.050781 12.53125 17.050781 L 9.570313 17.050781 C 9.480469 17.050781 9.410156 17.101563 9.351563 17.199219 L 8.28125 20.078125 C 7.570313 19.898438 6.980469 19.511719 6.5 18.910156 C 6.019531 18.308594 5.789063 17.640625 5.789063 16.898438 C 5.789063 16.070313 6.070313 15.351563 6.640625 14.730469 C 7.210938 14.121094 7.910156 13.761719 8.738281 13.660156 L 9.269531 13.589844 C 9.398438 13.589844 9.46875 13.53125 9.46875 13.410156 L 9.539063 12.898438 C 9.648438 11.820313 10.101563 10.910156 10.910156 10.179688 C 11.71875 9.449219 12.671875 9.078125 13.761719 9.078125 C 14.851563 9.078125 15.800781 9.449219 16.621094 10.179688 C 17.441406 10.910156 17.898438 11.820313 18.019531 12.890625 L 18.089844 13.460938 C 18.089844 13.578125 18.148438 13.648438 18.261719 13.648438 L 19.878906 13.648438 C 20.789063 13.648438 21.558594 13.96875 22.210938 14.601563 C 22.859375 15.230469 23.179688 16 23.179688 16.878906 C 23.179688 17.730469 22.878906 18.46875 22.28125 19.089844 C 21.679688 19.710938 20.949219 20.058594 20.078125 20.121094 C 19.960938 20.121094 19.890625 20.179688 19.890625 20.308594 L 19.890625 21.671875 C 19.890625 21.789063 19.949219 21.851563 20.078125 21.851563 C 21.410156 21.808594 22.539063 21.300781 23.46875 20.339844 C 24.398438 19.371094 24.859375 18.21875 24.859375 16.890625 C 24.859375 16.019531 24.640625 15.210938 24.199219 14.441406 C 24.960938 13.699219 25.46875 12.828125 25.710938 11.820313 L 25.898438 11.140625 C 25.910156 11.128906 25.910156 11.109375 25.910156 11.070313 C 25.910156 10.988281 25.859375 10.941406 25.761719 10.910156 L 25.140625 10.738281 C 24.570313 10.570313 24.078125 10.289063 23.679688 9.898438 C 23.28125 9.511719 23 9.101563 22.828125 8.679688 C 22.660156 8.261719 22.578125 7.839844 22.589844 7.421875 C 22.589844 7.140625 22.621094 6.859375 22.691406 6.570313 L 22.800781 5.960938 C 22.820313 5.859375 22.78125 5.78125 22.660156 5.730469 L 21.859375 5.488281 C 21.390625 5.398438 20.980469 5.351563 20.621094 5.351563 C 20.25 5.339844 19.871094 5.378906 19.488281 5.46875 C 19.109375 5.550781 18.710938 5.691406 18.300781 5.871094 C 17.890625 6.050781 17.5 6.320313 17.121094 6.660156 C 16.738281 7 16.410156 7.398438 16.128906 7.859375 C 15.300781 7.550781 14.511719 7.398438 13.769531 7.398438 C 12.359375 7.398438 11.101563 7.839844 10.011719 8.71875 C 8.921875 9.601563 8.210938 10.71875 7.898438 12.078125 C 6.789063 12.339844 5.878906 12.921875 5.160156 13.820313 C 4.449219 14.710938 4.089844 15.738281 4.089844 16.890625 Z M 12.261719 26.761719 C 12.261719 26.921875 12.308594 27.070313 12.410156 27.230469 C 12.511719 27.390625 12.660156 27.5 12.859375 27.558594 C 13.019531 27.589844 13.109375 27.609375 13.128906 27.609375 C 13.21875 27.609375 13.351563 27.578125 13.5 27.511719 C 13.710938 27.410156 13.851563 27.238281 13.921875 26.980469 L 14.199219 25.929688 C 14.261719 25.710938 14.238281 25.5 14.121094 25.300781 C 14 25.101563 13.828125 24.960938 13.589844 24.890625 C 13.371094 24.828125 13.160156 24.859375 12.960938 24.96875 C 12.761719 25.089844 12.621094 25.269531 12.550781 25.5 L 12.28125 26.5 Z M 13.601563 22 C 13.601563 22.429688 13.800781 22.679688 14.210938 22.75 C 14.351563 22.78125 14.441406 22.800781 14.480469 22.800781 C 14.859375 22.800781 15.109375 22.589844 15.25 22.171875 L 15.550781 21.148438 C 15.609375 20.929688 15.578125 20.71875 15.46875 20.519531 C 15.359375 20.320313 15.171875 20.179688 14.941406 20.109375 C 14.71875 20.039063 14.5 20.058594 14.300781 20.179688 C 14.101563 20.300781 13.960938 20.46875 13.890625 20.710938 L 13.640625 21.71875 C 13.609375 21.808594 13.601563 21.898438 13.601563 22 Z M 16.410156 23.671875 C 16.421875 23.839844 16.480469 24 16.589844 24.148438 C 16.699219 24.300781 16.859375 24.421875 17.070313 24.488281 C 17.230469 24.53125 17.339844 24.550781 17.398438 24.550781 C 17.738281 24.550781 17.980469 24.320313 18.109375 23.871094 L 18.351563 22.851563 C 18.421875 22.621094 18.398438 22.398438 18.289063 22.191406 C 18.179688 21.980469 18.011719 21.851563 17.789063 21.78125 C 17.539063 21.71875 17.308594 21.75 17.109375 21.859375 C 16.910156 21.980469 16.78125 22.160156 16.738281 22.390625 L 16.449219 23.421875 C 16.449219 23.441406 16.441406 23.480469 16.429688 23.539063 C 16.410156 23.609375 16.410156 23.648438 16.410156 23.671875 Z M 17.589844 8.769531 C 17.921875 8.210938 18.371094 7.78125 18.929688 7.480469 C 19.488281 7.179688 20.078125 7.03125 20.691406 7.03125 L 20.910156 7.03125 L 20.910156 7.351563 C 20.910156 7.988281 21.019531 8.609375 21.25 9.210938 C 21.480469 9.808594 21.808594 10.359375 22.269531 10.871094 C 22.71875 11.378906 23.261719 11.78125 23.878906 12.078125 C 23.710938 12.460938 23.460938 12.800781 23.121094 13.109375 C 22.210938 12.328125 21.140625 11.941406 19.898438 11.941406 L 19.570313 11.941406 C 19.28125 10.679688 18.621094 9.621094 17.589844 8.769531 Z M 17.78125 18.871094 C 17.78125 19.300781 18 19.578125 18.429688 19.691406 C 18.570313 19.710938 18.671875 19.730469 18.730469 19.730469 C 19.089844 19.730469 19.339844 19.511719 19.46875 19.078125 L 19.75 18.039063 C 19.761719 17.988281 19.761719 17.921875 19.761719 17.820313 C 19.769531 17.648438 19.730469 17.488281 19.621094 17.328125 C 19.511719 17.171875 19.351563 17.058594 19.128906 17 C 19.121094 17 19.078125 17 19.03125 16.988281 C 18.980469 16.980469 18.929688 16.980469 18.898438 16.980469 C 18.738281 16.980469 18.578125 17.03125 18.421875 17.128906 C 18.261719 17.230469 18.148438 17.390625 18.089844 17.601563 L 17.800781 18.621094 C 17.800781 18.628906 17.800781 18.660156 17.789063 18.71875 C 17.789063 18.789063 17.78125 18.839844 17.78125 18.871094 Z M 17.78125 18.871094 "/>
</g>
</svg>

<?xml version="1.0" encoding="utf-8"?>
<!-- Generator: Adobe Illustrator 22.0.1, SVG Export Plug-In . SVG Version: 6.00 Build 0)  -->
<svg version="1.1" id="Layer_1" xmlns="http://www.w3.org/2000/svg" xmlns:xlink="http://www.w3.org/1999/xlink" x="0px" y="0px"
	 viewBox="0 0 30 30" style="enable-background:new 0 0 30 30;" xml:space="preserve">
<path d="M4.09,16.89c0,1.11,0.33,2.1,0.99,2.97c0.66,0.87,1.52,1.47,2.58,1.79l-0.65,1.7c-0.04,0.14,0,0.21,0.14,0.21h2.12
	l-1.29,4.18h0.28l4.23-5.62c0.04-0.04,0.04-0.09,0.02-0.14c-0.03-0.05-0.07-0.07-0.14-0.07h-2.18l2.47-4.64
	c0.07-0.14,0.03-0.22-0.13-0.22H9.57c-0.09,0-0.16,0.05-0.22,0.15l-1.07,2.88c-0.71-0.18-1.3-0.57-1.78-1.17s-0.71-1.27-0.71-2.01
	c0-0.83,0.28-1.55,0.85-2.17c0.57-0.61,1.27-0.97,2.1-1.07l0.53-0.07c0.13,0,0.2-0.06,0.2-0.18l0.07-0.51
	c0.11-1.08,0.56-1.99,1.37-2.72c0.81-0.73,1.76-1.1,2.85-1.1c1.09,0,2.04,0.37,2.86,1.1c0.82,0.73,1.28,1.64,1.4,2.71l0.07,0.57
	c0,0.12,0.06,0.19,0.17,0.19h1.62c0.91,0,1.68,0.32,2.33,0.95s0.97,1.4,0.97,2.28c0,0.85-0.3,1.59-0.9,2.21
	c-0.6,0.62-1.33,0.97-2.2,1.03c-0.12,0-0.19,0.06-0.19,0.19v1.36c0,0.12,0.06,0.18,0.19,0.18c1.33-0.04,2.46-0.55,3.39-1.51
	c0.93-0.97,1.39-2.12,1.39-3.45c0-0.87-0.22-1.68-0.66-2.45c0.76-0.74,1.27-1.61,1.51-2.62l0.19-0.68c0.01-0.01,0.01-0.03,0.01-0.07
	c0-0.08-0.05-0.13-0.15-0.16l-0.62-0.17c-0.57-0.17-1.06-0.45-1.46-0.84c-0.4-0.39-0.68-0.8-0.85-1.22s-0.25-0.84-0.24-1.26
	c0-0.28,0.03-0.56,0.1-0.85l0.11-0.61c0.02-0.1-0.02-0.18-0.14-0.23l-0.8-0.24c-0.47-0.09-0.88-0.14-1.24-0.14
	c-0.37-0.01-0.75,0.03-1.13,0.12c-0.38,0.08-0.78,0.22-1.19,0.4c-0.41,0.18-0.8,0.45-1.18,0.79c-0.38,0.34-0.71,0.74-0.99,1.2
	C15.3,7.55,14.51,7.4,13.77,7.4c-1.41,0-2.67,0.44-3.76,1.32s-1.8,2-2.11,3.36c-1.11,0.26-2.02,0.84-2.74,1.74
	C4.45,14.71,4.09,15.74,4.09,16.89z M12.26,26.76c0,0.16,0.05,0.31,0.15,0.47c0.1,0.16,0.25,0.27,0.45,0.33
	c0.16,0.03,0.25,0.05,0.27,0.05c0.09,0,0.22-0.03,0.37-0.1c0.21-0.1,0.35-0.27,0.42-0.53l0.28-1.05c0.06-0.22,0.04-0.43-0.08-0.63
	s-0.29-0.34-0.53-0.41c-0.22-0.06-0.43-0.03-0.63,0.08c-0.2,0.12-0.34,0.3-0.41,0.53l-0.27,1L12.26,26.76z M13.6,22
	c0,0.43,0.2,0.68,0.61,0.75c0.14,0.03,0.23,0.05,0.27,0.05c0.38,0,0.63-0.21,0.77-0.63l0.3-1.02c0.06-0.22,0.03-0.43-0.08-0.63
	s-0.3-0.34-0.53-0.41c-0.22-0.07-0.44-0.05-0.64,0.07c-0.2,0.12-0.34,0.29-0.41,0.53l-0.25,1.01C13.61,21.81,13.6,21.9,13.6,22z
	 M16.41,23.67c0.01,0.17,0.07,0.33,0.18,0.48s0.27,0.27,0.48,0.34c0.16,0.04,0.27,0.06,0.33,0.06c0.34,0,0.58-0.23,0.71-0.68
	l0.24-1.02c0.07-0.23,0.05-0.45-0.06-0.66c-0.11-0.21-0.28-0.34-0.5-0.41c-0.25-0.06-0.48-0.03-0.68,0.08
	c-0.2,0.12-0.33,0.3-0.37,0.53l-0.29,1.03c0,0.02-0.01,0.06-0.02,0.12C16.41,23.61,16.41,23.65,16.41,23.67z M17.59,8.77
	c0.33-0.56,0.78-0.99,1.34-1.29s1.15-0.45,1.76-0.45h0.22v0.32c0,0.64,0.11,1.26,0.34,1.86c0.23,0.6,0.56,1.15,1.02,1.66
	c0.45,0.51,0.99,0.91,1.61,1.21c-0.17,0.38-0.42,0.72-0.76,1.03c-0.91-0.78-1.98-1.17-3.22-1.17h-0.33
	C19.28,10.68,18.62,9.62,17.59,8.77z M17.78,18.87c0,0.43,0.22,0.71,0.65,0.82c0.14,0.02,0.24,0.04,0.3,0.04
	c0.36,0,0.61-0.22,0.74-0.65l0.28-1.04c0.01-0.05,0.01-0.12,0.01-0.22c0.01-0.17-0.03-0.33-0.14-0.49
	c-0.11-0.16-0.27-0.27-0.49-0.33c-0.01,0-0.05,0-0.1-0.01c-0.05-0.01-0.1-0.01-0.13-0.01c-0.16,0-0.32,0.05-0.48,0.15
	s-0.27,0.26-0.33,0.47l-0.29,1.02c0,0.01,0,0.04-0.01,0.1C17.79,18.79,17.78,18.84,17.78,18.87z"/>
</svg>
